Obsidian-SemiLight/actions/16s/go-parent-folder.svg

<svg viewBox="0 0 16 16" xmlns="http://www.w3.org/2000/svg"><path d="m2 2v1 3 1 6 1h7v-1h-6v-6h10v1h1v-2-1-1h-4.9921875l-2-2-.0078125.0078125v-.0078125h-4zm1 1h3.5917969l1.0019531 1h-.59375v.0078125l-.0078125-.0078125-2 2h-1.9921875zm8.5 5-1.8789062 1.8789062-.9492188.9492188.7070312.707031.9492188-.949218.671875-.6718755v2.0859375 2h1v-1-1-2.0859375l.671875.6718755.949219.949218.707031-.707031-.949219-.9492188z" fill="#4d4d4d"/></svg>

<svg xmlns="http://www.w3.org/2000/svg" viewBox="0 0 16 16">
  <defs id="defs3051">
    <style type="text/css" id="current-color-scheme">
      .ColorScheme-Text {
        color:#4d4d4d;
      }
      </style>
  </defs>
 <path style="fill:currentColor;fill-opacity:1;stroke:none" 
       d="M 2 2 L 2 3 L 2 6 L 2 7 L 2 13 L 2 14 L 9 14 L 9 13 L 3 13 L 3 7 L 13 7 L 13 8 L 14 8 L 14 6 L 14 5 L 14 4 L 9.0078125 4 L 7.0078125 2 L 7 2.0078125 L 7 2 L 3 2 L 2 2 z M 3 3 L 6.5917969 3 L 7.59375 4 L 7 4 L 7 4.0078125 L 6.9921875 4 L 4.9921875 6 L 3 6 L 3 3 z M 11.5 8 L 9.6210938 9.8789062 L 8.671875 10.828125 L 9.3789062 11.535156 L 10.328125 10.585938 L 11 9.9140625 L 11 12 L 11 14 L 12 14 L 12 13 L 12 12 L 12 9.9140625 L 12.671875 10.585938 L 13.621094 11.535156 L 14.328125 10.828125 L 13.378906 9.8789062 L 11.5 8 z "
     class="ColorScheme-Text"
     />
</svg>
